X: 3167
Q: "Strathspey."
M: C
L: 1/8
K: Dm
uF |\
e |\
f<dd>e c>de<a |
f<dd>e f>df<a |\
[1 f<dd>e c>de<a | (3fed (3ed^c d2-d :|\
[2 c>dc>G E<C E>G | (3AGF (3GFE D2-D |]


